X: 15073
T: German, The
R: jig
M: 6/8
K: Gmixolydian
|:GBG dGB|def ecA|GBG dGB|def ~g3|
GBG dGB|def ecA|age g2e|1 fed e2c:|2 BcB G3||
|:d2G GdG|e2G GeG|fed edc|BdB BAG|
d2G GdG|e2G GeG|fed ee/e/e|1 agf g2e:|2 agf g3||

